X: 34534
T: Ril Na Drithleog
R: reel
M: 4/4
K: Gmajor
ge|:dB ~B2 dBGB|dBBd ~g3e|dBBe dBGd|(3gag fd egfe|dB~B2 dBGB|
dB~B2 dega|1 ~b2af gfed|egfd ~e3g:|2 bgaf gfed|egfd ~e3f||
g2bg fgaf|(3gag fd edBd|~g3b fgaf|feed eBfB|
~g2bg fgaf|~g2fd edBd|fgaf defg|1 afdf ~e3f:|2 afdf ~e3g||

